library/images/5e7e6b89b39e217e5685dc9a_pharmacy-1.svg

<svg height="69" viewBox="0 0 75 69" width="75" xmlns="http://www.w3.org/2000/svg"><g fill="#458bc9"><path d="m28.774982 39.8622995h-4.6396119v-4.6941406c0-.6846053-.5484526-1.2395875-1.2250032-1.2395875h-5.2325134c-.6765506 0-1.2250031.5549822-1.2250031 1.2395875v4.6941406h-4.639612c-.6765505 0-1.2250031.5549823-1.2250031 1.2395875v5.2955177c0 .6846052.5484526 1.2395874 1.2250031 1.2395874h4.639612v4.694849c0 .6846053.5484525 1.2395875 1.2250031 1.2395875h5.2325134c.6765506 0 1.2250032-.5549822 1.2250032-1.2395875v-4.694849h4.6396119c.6765505 0 1.2250081-.5549822 1.2250081-1.2395874v-5.291976c.000925-.3293723-.1277268-.6455768-.3575603-.8788111s-.5419494-.3643194-.8674478-.3643181zm-1.2250032 5.2955177h-4.6396119c-.6765505 0-1.2250031.5549822-1.2250031 1.2395875v4.6955573h-2.7825072v-4.6955573c0-.6846053-.5484525-1.2395875-1.2250031-1.2395875h-4.6396119v-2.8163427h4.6396119c.6765506 0 1.2250031-.5549822 1.2250031-1.2395875v-4.6941406h2.7825072v4.6976823c0 .6846052.5484526 1.2395875 1.2250031 1.2395875h4.6396119z"/><path d="m73.0822977 57.544404-5.3304286-5.2481026-5.3304285-5.2481026c-2.5116873-2.4652772-6.5299661-2.4190393-8.9850908.1033905l-.2251233.2315948c-2.1494587 2.212764-2.4158255 5.659043-.6322614 8.1802576h-12.201823v-27.3467914c.0012429-3.0530945-1.3238496-5.953857-3.6266074-7.9390131-1.7707407-1.5273844-2.7895184-3.7586449-2.788382-6.1069331v-3.6358998h1.6073397c.6613415 0 1.1974647-.54004431 1.1974647-1.2062227v-8.12235892c0-.66617839-.5361232-1.20622268-1.1974647-1.20622268h-30.76184147c-.66134149 0-1.19746469.54004429-1.19746469 1.20622268v8.12235892c0 .66617839.5361232 1.2062227 1.19746469 1.2062227h1.60733975v3.6358998c.00122845 2.3483084-1.01756608 4.579606-2.78838207 6.1069331-2.30260728 1.9852707-3.62766601 4.8859593-3.62660798 7.9390131v33.9272531c.00264227 3.6126295 2.90933402 6.5405801 6.49573338 6.5432411h27.38567529c.7560606-.001219 1.5060231-.1363037 2.2156518-.3990874.7006523.2626331 1.4420603.3977628 2.1896498.3990874h14.910146c3.4010123-.0057211 6.1950697-2.7069171 6.3404045-6.129679l4.4422518 4.3734188c2.5116873 2.4652772 6.5299661 2.4190393 8.9850908-.1033905l.2251234-.2315948c1.1779436-1.2140749 1.8288265-2.8498006 1.8098698-4.5473042-.0197978-1.6975037-.7078478-3.3177209-1.9131939-4.5041908zm-18.1610916-8.4780223.2251233-.2315948c1.5296356-1.5726332 4.0342496-1.6016147 5.5993449-.0647913l4.4750966 4.4058145-5.7587787 5.9359941-4.4750967-4.4058145c-1.5639546-1.5392629-1.5930582-4.0641817-.0650052-5.639608zm-52.52422266-17.7473267h35.58180796v24.2430082h-35.58180796zm24.21547306-23.19669608v-5.70991355h2.8308066v5.70991355zm-5.2257359 0v-5.70991355h2.8308066v5.70991355zm-5.2257359 0v-5.70991355h2.829438v5.70991355zm-5.2257359 0v-5.70991355h2.8308065v5.70991355zm23.4381474 0h-2.5352038v-5.70991355h2.5358881zm-28.36828058-5.70991355h2.53588808v5.70991355h-2.53588808zm-.82111865 19.69658253c2.30265133-1.9849423 3.62774239-4.8854498 3.62660735-7.9383238v-3.6358998h22.75867178v3.6358998c-.0009508 3.0528334 1.3241065 5.9532669 3.6266073 7.9383238 1.770816 1.5273271 2.7896105 3.7586247 2.7883832 6.1069331v.6892701h-35.581813v-.6892701c-.0023177-2.3473612 1.01435905-4.5784005 2.78291191-6.1069331zm-2.78701353 40.0348755v-4.1693949h30.92469666c-.9017485 1.1309658-1.3930202 2.5382298-1.3924803 3.9888061v.3232677c-.0004389 1.4503493.4908302 2.8573627 1.3924803 3.9881168h-26.82320903c-2.26398417-.002279-4.09884744-1.8502537-4.10148763-4.1307957zm31.92646146.1426789v-.3232677c.0022622-2.2017431 1.7734038-3.9861468 3.9591604-3.9888061h6.2576083v8.3001906h-6.2576083c-2.1854898-.0026585-3.9565212-1.7866428-3.9591604-3.9881168zm22.8284668 0c-.0026392 2.201474-1.7736706 3.9854583-3.9591604 3.9881168h-6.2576083v-8.3001906h6.2576083c2.1857566.0026593 3.9568981 1.787063 3.9591604 3.9888061zm14.3209934 2.623362-.2251233.2315948c-.7323384.7588885-1.7357015 1.1910179-2.7863293 1.2000192-1.0523544.0262488-2.0691903-.384208-2.8123314-1.1352278l-4.4750966-4.4058145 5.7587788-5.9359942 4.4750966 4.4058145c1.5635788 1.5394249 1.5926787 4.0640286.0650052 5.639608z"/></g></svg>

<?xml version="1.0" encoding="UTF-8"?>
<svg width="75px" height="69px" viewBox="0 0 75 69" version="1.1" xmlns="http://www.w3.org/2000/svg" xmlns:xlink="http://www.w3.org/1999/xlink">
    <!-- Generator: Sketch 57.1 (83088) - https://sketch.com -->
    <title>pharmacy</title>
    <desc>Created with Sketch.</desc>
    <g id="Page-1" stroke="none" stroke-width="1" fill="none" fill-rule="evenodd">
        <g id="Desktop-HD-Copy-3" transform="translate(-567.000000, -2008.000000)" fill="#458BC9" fill-rule="nonzero">
            <g id="pharmacy" transform="translate(567.000000, 2008.000000)">
                <path d="M28.774982,39.8622995 L24.1353701,39.8622995 L24.1353701,35.1681589 C24.1353701,34.4835536 23.5869175,33.9285714 22.9103669,33.9285714 L17.6778535,33.9285714 C17.0013029,33.9285714 16.4528504,34.4835536 16.4528504,35.1681589 L16.4528504,39.8622995 L11.8132384,39.8622995 C11.1366879,39.8622995 10.5882353,40.4172818 10.5882353,41.101887 L10.5882353,46.3974047 C10.5882353,47.0820099 11.1366879,47.6369921 11.8132384,47.6369921 L16.4528504,47.6369921 L16.4528504,52.3318411 C16.4528504,53.0164464 17.0013029,53.5714286 17.6778535,53.5714286 L22.9103669,53.5714286 C23.5869175,53.5714286 24.1353701,53.0164464 24.1353701,52.3318411 L24.1353701,47.6369921 L28.774982,47.6369921 C29.4515325,47.6369921 29.9999901,47.0820099 29.9999901,46.3974047 L29.9999901,41.1054287 C30.0009151,40.7760564 29.8722633,40.4598519 29.6424298,40.2266176 C29.4125963,39.9933833 29.1004804,39.8622982 28.774982,39.8622995 L28.774982,39.8622995 Z M27.5499788,45.1578172 L22.9103669,45.1578172 C22.2338164,45.1578172 21.6853638,45.7127994 21.6853638,46.3974047 L21.6853638,51.092962 L18.9028566,51.092962 L18.9028566,46.3974047 C18.9028566,45.7127994 18.3544041,45.1578172 17.6778535,45.1578172 L13.0382416,45.1578172 L13.0382416,42.3414745 L17.6778535,42.3414745 C18.3544041,42.3414745 18.9028566,41.7864923 18.9028566,41.101887 L18.9028566,36.4077464 L21.6853638,36.4077464 L21.6853638,41.1054287 C21.6853638,41.7900339 22.2338164,42.3450162 22.9103669,42.3450162 L27.5499788,42.3450162 L27.5499788,45.1578172 Z" id="Shape"></path>
                <path d="M73.0822977,57.544404 L67.7518691,52.2963014 L62.4214406,47.0481988 C59.9097533,44.5829216 55.8914745,44.6291595 53.4363498,47.1515893 L53.2112265,47.3831841 C51.0617678,49.5959481 50.795401,53.0422271 52.5789651,55.5634417 L40.3771421,55.5634417 L40.3771421,28.2166503 C40.378385,25.1635558 39.0532925,22.2627933 36.7505347,20.2776372 C34.979794,18.7502528 33.9610163,16.5189923 33.9621527,14.1707041 L33.9621527,10.5348043 L35.5694924,10.5348043 C36.2308339,10.5348043 36.7669571,9.99475999 36.7669571,9.3285816 L36.7669571,1.20622268 C36.7669571,0.540044291 36.2308339,0 35.5694924,0 L4.80765093,0 C4.14630944,0 3.61018624,0.540044291 3.61018624,1.20622268 L3.61018624,9.3285816 C3.61018624,9.99475999 4.14630944,10.5348043 4.80765093,10.5348043 L6.41499068,10.5348043 L6.41499068,14.1707041 C6.41621913,16.5190125 5.3974246,18.7503101 3.62660861,20.2776372 C1.32400133,22.2629079 -0.00105740036,25.1635965 6.32962042e-07,28.2166503 L6.32962042e-07,62.1439034 C0.00264290475,65.7565329 2.90933465,68.6844835 6.49573401,68.6871445 L33.8814093,68.6871445 C34.6374699,68.6859255 35.3874324,68.5508408 36.0970611,68.2880571 C36.7977134,68.5506902 37.5391214,68.6858199 38.2867109,68.6871445 L53.1968569,68.6871445 C56.5978692,68.6814234 59.3919266,65.9802274 59.5372614,62.5574655 L63.9795132,66.9308843 C66.4912005,69.3961615 70.5094793,69.3499236 72.964604,66.8274938 L73.1897274,66.595899 C74.367671,65.3818241 75.0185539,63.7460984 74.9995972,62.0485948 C74.9797994,60.3510911 74.2917494,58.7308739 73.0864033,57.544404 L73.0822977,57.544404 Z M54.9212061,49.0663817 L55.1463294,48.8347869 C56.675965,47.2621537 59.180579,47.2331722 60.7456743,48.7699956 L65.2207709,53.1758101 L59.4619922,59.1118042 L54.9868955,54.7059897 C53.4229409,53.1667268 53.3938373,50.641808 54.9218903,49.0663817 L54.9212061,49.0663817 Z M2.39698344,31.319055 L37.9787914,31.319055 L37.9787914,55.5620632 L2.39698344,55.5620632 L2.39698344,31.319055 Z M26.6124565,8.12235892 L26.6124565,2.41244537 L29.4432631,2.41244537 L29.4432631,8.12235892 L26.6124565,8.12235892 Z M21.3867206,8.12235892 L21.3867206,2.41244537 L24.2175272,2.41244537 L24.2175272,8.12235892 L21.3867206,8.12235892 Z M16.1609847,8.12235892 L16.1609847,2.41244537 L18.9904227,2.41244537 L18.9904227,8.12235892 L16.1609847,8.12235892 Z M10.9352488,8.12235892 L10.9352488,2.41244537 L13.7660553,2.41244537 L13.7660553,8.12235892 L10.9352488,8.12235892 Z M34.3733962,8.12235892 L31.8381924,8.12235892 L31.8381924,2.41244537 L34.3740805,2.41244537 L34.3733962,8.12235892 Z M6.00511562,2.41244537 L8.5410037,2.41244537 L8.5410037,8.12235892 L6.00511562,8.12235892 L6.00511562,2.41244537 Z M5.18399697,22.1090279 C7.4866483,20.1240856 8.81173936,17.2235781 8.81060432,14.1707041 L8.81060432,10.5348043 L31.5692761,10.5348043 L31.5692761,14.1707041 C31.5683253,17.2235375 32.8933826,20.123971 35.1958834,22.1090279 C36.9666994,23.636355 37.9854939,25.8676526 37.9842666,28.215961 L37.9842666,28.9052311 L2.4024536,28.9052311 L2.4024536,28.215961 C2.4001359,25.8685998 3.41681265,23.6375605 5.18536551,22.1090279 L5.18399697,22.1090279 Z M2.39698344,62.1439034 L2.39698344,57.9745085 L33.3216801,57.9745085 C32.4199316,59.1054743 31.9286599,60.5127383 31.9291998,61.9633146 L31.9291998,62.2865823 C31.9287609,63.7369316 32.42003,65.143945 33.3216801,66.2746991 L6.49847107,66.2746991 C4.2344869,66.2724201 2.39962363,64.4244454 2.39698344,62.1439034 L2.39698344,62.1439034 Z M34.3234449,62.2865823 L34.3234449,61.9633146 C34.3257071,59.7615715 36.0968487,57.9771678 38.2826053,57.9745085 L44.5402136,57.9745085 L44.5402136,66.2746991 L38.2826053,66.2746991 C36.0971155,66.2720406 34.3260841,64.4880563 34.3234449,62.2865823 Z M57.1519117,62.2865823 C57.1492725,64.4880563 55.3782411,66.2720406 53.1927513,66.2746991 L46.935143,66.2746991 L46.935143,57.9745085 L53.1927513,57.9745085 C55.3785079,57.9771678 57.1496494,59.7615715 57.1519117,61.9633146 L57.1519117,62.2865823 Z M71.4729051,64.9099443 L71.2477818,65.1415391 C70.5154434,65.9004276 69.5120803,66.332557 68.4614525,66.3415583 C67.4090981,66.3678071 66.3922622,65.9573503 65.6491211,65.2063305 L61.1740245,60.800516 L66.9328033,54.8645218 L71.4078999,59.2703363 C72.9714787,60.8097612 73.0005786,63.3343649 71.4729051,64.9099443 L71.4729051,64.9099443 Z" id="Shape"></path>
            </g>
        </g>
    </g>
</svg>
